X:2871
T:Polska av Viktor Gabrielsson
S:Älvdalspolska
S:Efter Jonas "Jalle" Hjalmarsson
Z:[[http://www.bluerose.karenlmyers.org/IncipitsPolskaAlvdalen4.html|Karen Myers (#2871)]]
Z:Upptecknad 6/2006
M:3/4
L:1/8
R:Polska
O:Älvdalen, Dalarna
K:Bm
((3!turn!B2 d2) B2 c>A | ((3:2:4cA)(B2 d2) f2- | (3:2:5f2 (a2 {b2a2}f2) g>f | e2 f4 :|
|: (3f2 (a2 f2) (g>f | (3e2) g2 e2 g2 | (3f2 (b2 f2) (g>f | (3e2) g2 e2 f2- | (3f2 d2 c2 e>c | {c}d2 B4 :|
W:Also played in A minor or E minor
